X:567
T:Teetotaler's Reel #1, The
C:Joe Buchanan's Scottish Tome - Page 150.3
I:150 3
Z:Carl Allison
R:Reel
L:1/8
M:4/4
K:G
|: "G"G2 GF GABc | "C"dBge "B7"dBGB | "Em"BEED EFGA | "D7"BGAF GFED |
"G"G2 GF GABc | "C"dBge "B7"dBGA | "Em"BEED EFGA |1 "D7"BGAF GFED :|2 "D7"BGAF "G"G2 B2 |]
|: "Em"Beed e2 > f2 | geaf "Em"gfed | "D"Add^c d2 > e2 | fdaf "Am"gfed |
"Em"Beed e2 > f2 | geaf "Em"gfed | "Em"BAGF "C"EFGA |1 "D7"BGAF G2 B2 :|2 "D7"BGAF "A7"G2 A2 |]

